symbols/web/menu_book/materialsymbolsoutlined/menu_book_wght200_20px.svg

<svg xmlns="http://www.w3.org/2000/svg" height="20" width="20"><path d="M11.562 8.083v-.875q.688-.333 1.448-.5.761-.166 1.573-.166.459 0 .886.062.427.063.885.167v.833q-.437-.146-.854-.198-.417-.052-.917-.052-.812 0-1.583.188-.771.187-1.438.541Zm0 4.459v-.896q.646-.334 1.438-.5.792-.167 1.583-.167.459 0 .886.052t.885.177v.834q-.437-.146-.854-.198-.417-.052-.917-.052-.812 0-1.583.198-.771.198-1.438.552Zm0-2.209v-.895q.688-.334 1.448-.511.761-.177 1.573-.177.459 0 .886.062.427.063.885.167v.854q-.437-.145-.854-.198-.417-.052-.917-.052-.812 0-1.583.198-.771.198-1.438.552Zm-6.104 2.959q1.063 0 2.073.25 1.011.25 2.011.77V6.271q-.875-.625-1.948-.927-1.073-.302-2.136-.302-.729 0-1.291.073-.563.073-1.229.302-.188.062-.271.177-.084.114-.084.26v7.396q0 .229.157.333.156.105.364.021.458-.146 1.042-.229.583-.083 1.312-.083Zm5 1.02q1-.52 2.011-.77 1.01-.25 2.052-.25.75 0 1.323.083t1.052.25q.208.083.364-.021.157-.104.157-.333V5.917q0-.146-.084-.25-.083-.105-.271-.188-.708-.25-1.25-.344-.541-.093-1.291-.093-1.042 0-2.125.302-1.084.302-1.938.927ZM10 15.646q-1-.708-2.156-1.073-1.156-.365-2.386-.365-.666 0-1.302.136-.635.135-1.26.385-.438.167-.834-.114-.395-.282-.395-.782V5.688q0-.313.166-.553.167-.239.438-.343.75-.354 1.552-.511.802-.156 1.635-.156 1.209 0 2.375.344Q9 4.812 10 5.479q1.021-.667 2.167-1.01 1.145-.344 2.354-.344.833 0 1.635.167.802.166 1.573.5.271.104.438.343.166.24.166.553v8.145q0 .5-.427.771t-.927.084q-.583-.25-1.208-.365-.625-.115-1.25-.115-1.229 0-2.375.365T10 15.646ZM6.062 9.562Z"/></svg>

<svg xmlns="http://www.w3.org/2000/svg" height="20" width="20"><path d="M11.562 8.083V7.208Q12.25 6.875 13.01 6.708Q13.771 6.542 14.583 6.542Q15.042 6.542 15.469 6.604Q15.896 6.667 16.354 6.771V7.604Q15.917 7.458 15.5 7.406Q15.083 7.354 14.583 7.354Q13.771 7.354 13 7.542Q12.229 7.729 11.562 8.083ZM11.562 12.542V11.646Q12.208 11.312 13 11.146Q13.792 10.979 14.583 10.979Q15.042 10.979 15.469 11.031Q15.896 11.083 16.354 11.208V12.042Q15.917 11.896 15.5 11.844Q15.083 11.792 14.583 11.792Q13.771 11.792 13 11.99Q12.229 12.188 11.562 12.542ZM11.562 10.333V9.438Q12.25 9.104 13.01 8.927Q13.771 8.75 14.583 8.75Q15.042 8.75 15.469 8.812Q15.896 8.875 16.354 8.979V9.833Q15.917 9.688 15.5 9.635Q15.083 9.583 14.583 9.583Q13.771 9.583 13 9.781Q12.229 9.979 11.562 10.333ZM5.458 13.292Q6.521 13.292 7.531 13.542Q8.542 13.792 9.542 14.312V6.271Q8.667 5.646 7.594 5.344Q6.521 5.042 5.458 5.042Q4.729 5.042 4.167 5.115Q3.604 5.188 2.938 5.417Q2.75 5.479 2.667 5.594Q2.583 5.708 2.583 5.854V13.25Q2.583 13.479 2.74 13.583Q2.896 13.688 3.104 13.604Q3.562 13.458 4.146 13.375Q4.729 13.292 5.458 13.292ZM10.458 14.312Q11.458 13.792 12.469 13.542Q13.479 13.292 14.521 13.292Q15.271 13.292 15.844 13.375Q16.417 13.458 16.896 13.625Q17.104 13.708 17.26 13.604Q17.417 13.5 17.417 13.271V5.917Q17.417 5.771 17.333 5.667Q17.25 5.562 17.062 5.479Q16.354 5.229 15.812 5.135Q15.271 5.042 14.521 5.042Q13.479 5.042 12.396 5.344Q11.312 5.646 10.458 6.271ZM10 15.646Q9 14.938 7.844 14.573Q6.688 14.208 5.458 14.208Q4.792 14.208 4.156 14.344Q3.521 14.479 2.896 14.729Q2.458 14.896 2.062 14.615Q1.667 14.333 1.667 13.833V5.688Q1.667 5.375 1.833 5.135Q2 4.896 2.271 4.792Q3.021 4.438 3.823 4.281Q4.625 4.125 5.458 4.125Q6.667 4.125 7.833 4.469Q9 4.812 10 5.479Q11.021 4.812 12.167 4.469Q13.312 4.125 14.521 4.125Q15.354 4.125 16.156 4.292Q16.958 4.458 17.729 4.792Q18 4.896 18.167 5.135Q18.333 5.375 18.333 5.688V13.833Q18.333 14.333 17.906 14.604Q17.479 14.875 16.979 14.688Q16.396 14.438 15.771 14.323Q15.146 14.208 14.521 14.208Q13.292 14.208 12.146 14.573Q11 14.938 10 15.646ZM6.062 9.562Q6.062 9.562 6.062 9.562Q6.062 9.562 6.062 9.562Q6.062 9.562 6.062 9.562Q6.062 9.562 6.062 9.562Q6.062 9.562 6.062 9.562Q6.062 9.562 6.062 9.562Q6.062 9.562 6.062 9.562Q6.062 9.562 6.062 9.562Q6.062 9.562 6.062 9.562Q6.062 9.562 6.062 9.562Q6.062 9.562 6.062 9.562Q6.062 9.562 6.062 9.562Z"/></svg>
